X: 213
T: Miss Stewart's fancy
R: jig
M: 6/8
L: 1/8
Z: 2011 John Chambers <jc:trillian.mit.edu>
B: Abraham Mackintosh "A Collection of Strathspeys, Reels, Jigs &c.", Newcastle, after 1797, p.21
F: http://imslp.info/files/imglnks/usimg/a/a8/IMSLP80796-PMLP164326-Abraham_Mackintosh_coll.pdf
K: A
V: 1
   f | Te2c ea=g fdB B2f | edB Ace | f3-f2g | agf edc | fdB B2f/g/ | aec dcB | A3-A2 :|
|: E | A2A AcB | AFF F2E | AcB Ace | f3 f2g | agf edc | fdB B2f/g/ | aec dcB | A3 A2 :|
V: 2 clef=bass middle=d
   z | a3 c'3 | d'3 d3 | a3 c3 | dfa d'3 | c'2d' c'2a | d'3 d3 | c2A B2e | a2e A2 :|
|: z | a3 A3  | d3  d3 | a3 A3 | dfa d'3 | c'2d' c'2a | d'3 d3 | c2A B2e | a2e A2 :|

%%sep 2 1 500

